!!!OTL: Abends und morgens (278), S. 468
!!!id: T0468
**kern
*clefG2
*k[f#]
*G:
{8d
=1
4g
8g
8a
=2
4b
8b
8b
=3
8a
8cc
8b
8a
=4
4g}
4r
=5
{8dd
8dd
8dd
8dd
=6
8ee
8ee
8ee
8ee}
=7
{8cc
8cc
8cc
8a
=8
8dd
8dd
8dd
8dd}
=9
{4.g
8b
=10
4.a
8cc
=11
8b
8g
8a
8f#
=12
4g}
8r
==
*-
!!!minrhy: 8
!!!meters: 2/4 ]  ZZ[4
!!!cut: Abends und morgens (278), S. 468
!!!reg: Luxemburg
!!!trd: Singendes Volk, Esch-Alzette, 1937 posth.
!!!rhy1: X  X_XX  X_XX  XXXX  X_0_
!!!rhy2: XXXX  XXXX
!!!key: T0468  08  G 2/4 ]  ZZ[4
!!!mod: HEPTATONIK IONISCH]  AMBITUS[9
!!!kad: 1651
!!!akz: 1321_56_45_1231_
!!!fot: 'a__b__bs'bs'
!!!for: 'a__b__b__c__
!!!fok: '^a_/__Va_^__
!! PHRAS[VORWIEGEND VOLLTAKTIG]
!!!fkt: ???
!!!bem: Junglinster, hhh Prosper Brentener, 1890
!! THILL; Mathias
!! PR[34] 2K[2] 2G[2] 3K[0] 3G[4] 4A[8] 4Ü[0] 5A[0] 6K[0] 6G[4]
!! 7K[0] 7G[0] 8A[0] MEHR[0] SI[20] ABS[50] SR[4] SP[16]
!! ST[12] 2k[8] 2g[26] 3k[4] 3g[4] 4d[4] 4ü[0] 5d[0] 6k[0] 6g[0]
!! 7k[0] 7g[0] 8d[0] mehr[0] si[46] dm[-26] sr[34] sp[12]
!! 1F[68] 2F[28] 3F[0] 4F[0] LF[0] 2P[4] 3P[0] 4P[0] TRI[0] DF[3] AB[53]
!! TF[0] U3K[0] U3[0] U4[0] U4Ü[0] U5[0] U6K[0] U6[0] U7K[0] U7[0]
!! N1[0] N2K[0] N2[0] N3K[0] N3[0] N4[0] N4Ü[0] N5[20] N6K[0] N6[10]
!!!n7k: 0] N7[8] O1[39] O2K[0] O2[6] O3K[0] O3[18] HÖ[0
